!!!COM: Bach, Johann Sebastian
!!!OPR: Joh. Seb. Bachs vierstimmige Choralgesänge
!!!XEN: Four-part Chorales
!!!OTL: 76. Herr, ich denk' an jene Zeit
!!!SCT: BWV 329
!!!SCA: Thematisch-systematisches Verzeichnis der musikalischen Werke Johann Sebastian Bach: Bach-Werke-Verzeichnis (Schmieder)
!!!YOR: Bach Gesellschaft Edition xxxix
!!!ENC: Steven Rasmussen
!!!CDT: 1685/3//-1750/7/28/
!!!OCY: Deutschland
!!!YEC: Copyright (c) 1994, 2000 Center for Computer Assisted Research in the Humanities
!!!YEM: Rights to all derivative editions reserved
!!!YEN: United States of America
**kern	**silbe	**kern	**kern	**silbe	**kern	**silbe
*I:[SOPRANO]	*I:[SOPRANO]	*I:[ALTO]	*I:[TENORE]	*I:[TENORE]	*I:[BASSO]	*I:[BASSO]
*clefG2	*	*clefG2	*clefGv2	*	*clefF4	*
*k[b-e-a-]	*	*k[b-e-a-]	*k[b-e-a-]	*	*k[b-e-a-]	*
*E-:	*	*E-:	*E-:	*	*E-:	*
*M4/4	*	*M4/4	*M4/4	*	*M4/4	*
=1-	=1-	=1-	=1-	=1-	=1-	=1-
4e-	Herr,	4B-	4G	.	4.E-	.
4e-	ich	4B-	8GL	.	.	.
.	.	.	8A-J	.	8F	.
4b-	denk'	4e-	(8B-	.	4G	.
.	.	.	4e-)	.	.	.
4b-	an	8gL	.	.	4E-	.
.	.	8fJ	8d-	.	.	.
=2	=2	=2	=2	=2	=2	=2
4cc	je-	4e-	8cL	.	8A-L	.
.	.	.	8B-J	.	8GJ	.
4dd	-ne	4f	4A-	.	4F	.
2ee-;	Zeit,	2g;	2B-;	.	2E-;	.
=3	=3	=3	=3	=3	=3	=3
4.dd	wenn	4f	4B-	.	8B-L	.
.	.	.	.	.	8A-J	.
.	.	4b-	4B-	.	4G	.
8ee-	ich	.	.	.	.	.
4ff	die-	8b-L	4B-	.	4D	.
.	.	8a-J	.	.	.	.
4b-	-sem	4g	4B-	.	8E-L	.
.	.	.	.	.	8DJ	.
=4	=4	=4	=4	=4	=4	=4
4ee-	kur-	8gL	8B-	kur-	8CL	kur-
.	.	8fJ	8An	-zen	8FJ	.
4dd	-zen	4f	2B-	Le-	8BB-L	-zen
.	.	.	.	.	8DJ	.
2cc	Le-	4g	.	.	8E-L	Le-
.	.	.	.	.	8CJ	.
.	.	8fL	4A	.	4F	.
.	.	8e-J	.	.	.	.
=5	=5	=5	=5	=5	=5	=5
2b-;	-ben	2d;	2F;	-ben	2BB-;	-ben
4ee-	we-	4g	4B-	.	8EE-L	.
.	.	.	.	.	8FFJ	.
4ee-	-gen	4g	8B-L	.	8GGL	.
.	.	.	8cJ	.	8AA-J	.
=6	=6	=6	=6	=6	=6	=6
4b-	mei-	4f	4d	.	8BB-L	.
.	.	.	.	.	8CJ	.
4b-	-ner	8fL	8dL	.	8DL	.
.	.	8gJ	8cJ	.	8E-J	.
4a-	Sterb-	8gL	4c	.	8FL	.
.	.	8cJ	.	.	8E-J	.
4a-	-lich-	8fL	4B-	.	8DL	.
.	.	16e-L	.	.	8BB-J	.
.	.	16dJJ	.	.	.	.
=7	=7	=7	=7	=7	=7	=7
2g;	-keit	2e-;	2B-;	.	2E-;	.
4b-	gu-	4f	8dL	.	8B-L	.
.	.	.	8cJ	.	8A-J	.
4b-	-te	4e-	4B-	.	8GL	.
.	.	.	.	.	8FJ	.
=8	=8	=8	=8	=8	=8	=8
4a-	Nacht	4f	4B-	.	8E-L	.
.	.	.	.	.	8DJ	.
4g	muss	8fL	4B-	.	4E-	.
.	.	8e-J	.	.	.	.
2f	ge-	4e-	8cL	.	4AA-	.
.	.	.	8F	.	.	.
.	.	4d	8B-	.	4BB-	.
.	.	.	8A-J	.	.	.
=9	=9	=9	=9	=9	=9	=9
2e-;	-ben,	2B-;	2G;	.	2EE-;	.
4f	wenn	4d	4B-	.	8B-L	.
.	.	.	.	.	8A-J	.
4f	ich	4d	8B-L	.	8GL	.
.	.	.	8A-J	.	8FJ	.
=10	=10	=10	=10	=10	=10	=10
8gL	werd'	4e-	8B-L	.	4E-	.
8anJ	.	.	8cJ	.	.	.
4b-	auf	8fL	4d	.	8DL	.
.	.	8gJ	.	.	8E-J	.
4b-	dein	4f	8cL	.	4F	.
.	.	.	8dJ	.	.	.
4a	Ge-	4f	4e-	.	4F	.
=11	=11	=11	=11	=11	=11	=11
2b-;	-bot	2f;	2d;	.	2BB-;	.
4cc	durch	8fL	8cL	.	4A-	.
.	.	8a-J	8fJ	.	.	.
4dd	den	8a-L	4d	.	4BBn	.
.	.	8gJ	.	.	.	.
=12	=12	=12	=12	=12	=12	=12
2ee-;	Tod	2g;	2c;	.	2C;	.
4b-	Al-	8fL	4f	.	4D	.
.	.	8a-J	.	.	.	.
4b-	-les	8a-L	8fL	.	4E-	.
.	.	8gJ	8e-J	.	.	.
=13	=13	=13	=13	=13	=13	=13
4a-	Ã¼-	4.f	8e-L	.	4F	.
.	.	.	16dL	.	.	.
.	.	.	16cJJ	.	.	.
4g	-ber-	.	4B-	.	4G	.
.	.	8e-	.	.	.	.
2f	-stre-	8e-L	4c	.	4A-	.
.	.	16dL	.	.	.	.
.	.	16cJJ	.	.	.	.
.	.	4d	8B-L	.	8B-L	.
.	.	.	8A-J	.	8BB-J	.
=14	=14	=14	=14	=14	=14	=14
1e-;	-ben.	1B-;	1G;	.	1E-;	.
==|!	==|!	==|!	==|!	==|!	==|!	==|!
*-	*-	*-	*-	*-	*-	*-
!!!RWG: Key is interpreted using the Humdrum key tool.
!!!END: 1994/06/08
!!!EMD: Converted from MuseData to Humdrum Dec 19, 2000, by Andreas Kornstaedt using muse2kern.
!!!EED: Craig Stuart Sapp
!!!EEV: 2024/03/31
!!!ONB: Some non-unicode characters
